misc/common/icons/qsp.svg

<?xml version="1.0" encoding="UTF-8" ?>
<!DOCTYPE svg PUBLIC "-//W3C//DTD SVG 1.1//EN" "http://www.w3.org/Graphics/SVG/1.1/DTD/svg11.dtd">
<svg width="512pt" height="512pt" viewBox="0 0 512 512" version="1.1" xmlns="http://www.w3.org/2000/svg">
    <defs><clipPath id="clip-rect"><use href="#back" /></clipPath></defs>
    <rect id="back" x="0" y="0" width="512" height="512" rx="30" ry="30" fill="#fb0000" />
    <path d="M0 210v209c20 15 30 22 45 29 57 29 130 35 200 17 8-2 9-1 9-1 4 5 14 17 23 27 6 7 14 14 19 19l2 2h163c11-11 16-21 19-32 7-24 3-58-10-90-2-4-4-2-6-1-7 3-10 5-14 7-3 2-2 3-2 4 5 28-3 49-23 57-25 11-52 3-86-27-3-3-5-4-5-5l4-2c64-45 102-113 108-191 1-5 1-34 0-40-4-74-38-144-93-190l-2-2H175s2 0 3 1c12 2 23 5 33 9 64 25 108 89 123 178 1 8 2 14 3 26 1 5 1 35 0 41-3 42-15 76-36 104-4 6-11 14-13 14-1 1-2-1-2-1-29-27-57-46-89-56-46-15-98-11-148 12-4 2-6 2-6 2-2-3-8-17-12-27-13-29-23-66-26-98v-5c0-3-1-32 0-36C10 82 58 15 122 2c2 0 5-1 6-1 2-1 4-1 4-1H0Zm108 140c32 3 58 19 94 56 6 5 6 5 2 6-3 1-23 1-31 0-39-2-77-21-105-51-4-5-5-6-2-6 15-5 29-6 42-5Z" fill="#fbfbfb" clip-path="url(#clip-rect)" />
</svg>

<?xml version="1.0" encoding="UTF-8" ?>
<!DOCTYPE svg PUBLIC "-//W3C//DTD SVG 1.1//EN" "http://www.w3.org/Graphics/SVG/1.1/DTD/svg11.dtd">
<svg width="512pt" height="512pt" viewBox="0 0 512 512" version="1.1" xmlns="http://www.w3.org/2000/svg">
    <defs>
        <clipPath id="clip-rect">
            <use href="#back" />
        </clipPath>
    </defs>
    <rect id="back" x="0" y="0" width="512" height="512" rx="30" ry="30" fill="#fb0000" />
    <path d="M0 210 L0 419 C20 434 30 441 45 448 C102 477 175 483 245 465 C253 463 254 464 254 464 C258 469 268 481 277 491 C283 498 291 505 296 510 L298 512 H379 H461 C472 501 477 491 480 480 C487 456 483 422 470 390 C468 386 466 388 464 389 C457 392 454 394 450 396 C447 398 448 399 448 400 C453 428 445 449 425 457 C400 468 373 460 339 430 C336 427 334 426 334 425 C334 425 336 424 338 423 C402 378 440 310 446 232 C447 227 447 198 446 192 C442 118 408 48 353 2 L351 0 H263 C214 0 175 0 175 0 C175 0 177 0 178 1 C190 3 201 6 211 10 C275 35 319 99 334 188 C335 196 336 202 337 214 C338 219 338 249 337 255 C334 297 322 331 301 359 C297 365 290 373 288 373 C287 374 286 372 286 372 C257 345 229 326 197 316 C151 301 99 305 49 328 C45 330 43 330 43 330 C41 327 35 313 31 303 C18 274 8 237 5 205 C5 203 5 201 5 200 C5 197 4 168 5 164 C10 82 58 15 122 2 C124 2 127 1 128 1 C130 0 132 0 132 0 C132 0 102 0 66 0 H0 Z M108 350 C140 353 166 369 202 406 C208 411 208 411 204 412 C201 413 181 413 173 412 C134 410 96 391 68 361 C64 356 63 355 66 355 C81 350 95 349 108 350 Z" fill="#fbfbfb" clip-path="url(#clip-rect)" />
</svg>
